logos/stimulus.svg

<?xml version="1.0" encoding="UTF-8"?>
<svg width="512px" height="83px" viewBox="0 0 512 83" version="1.1" xmlns="http://www.w3.org/2000/svg" preserveAspectRatio="xMidYMid">
    <title>Stimulus</title>
    <g>
        <path d="M82.3722192,46.0735279 L82.3722192,60.6122246 L65.4172707,60.6122246 C63.9952955,60.5556236 62.6018175,60.2076679 61.3225881,59.5918154 L60.9005274,59.3766413 L56.7819164,56.987847 C55.5761637,56.3653981 54.1587508,56.3239015 52.9247767,56.8633572 L52.6633054,56.987847 L47.3914834,60.0768052 C46.9255113,60.3090447 46.6310041,60.7848849 46.6310041,61.3055241 C46.6310041,61.7683145 46.8637011,62.1957082 47.2426787,62.4480803 L47.3914834,62.534243 L58.4842756,69.0416484 C59.732525,69.7169696 61.1050748,70.1268653 62.5157656,70.247694 L62.9872902,70.2772316 L82.3722192,70.2772316 L82.3722192,79.9696961 C82.3580436,81.2258833 81.3922536,82.2515592 80.1631398,82.3623436 L79.9559674,82.3722192 L2.41625176,82.3722192 C1.17486597,82.3657005 0.150182871,81.4278137 0.0143019304,80.2153834 L0,80.0108822 L0,70.3184178 L19.3300141,70.3184178 C20.7481169,70.262118 22.1376521,69.9141245 23.4124601,69.2980785 L23.8330287,69.0828345 L60.9005274,47.3091112 C62.1555362,46.639597 63.5311455,46.2306706 64.9447685,46.1049242 L65.4172707,46.0735279 L82.3722192,46.0735279 Z M82.3722192,21.8011807 L82.3722192,36.3398774 L63.0422051,36.3398774 C61.625036,36.4021609 60.2367796,36.7504275 58.9603948,37.3619141 L58.5391904,37.5754606 L21.4716918,59.3629126 C20.216683,60.0324268 18.8410736,60.4413532 17.4274507,60.5670996 L16.9549484,60.5984959 L0,60.5984959 L0,46.0597992 L19.3300141,46.0597992 C20.7471832,45.9975157 22.1354396,45.649249 23.4118243,45.0377625 L23.8330287,44.8242159 L60.9005274,23.036764 C62.1555362,22.3672497 63.5311455,21.9583234 64.9447685,21.832577 L65.4172707,21.8011807 L82.3722192,21.8011807 Z M79.9559674,0 C81.2051095,0 82.2358872,0.948411994 82.3600398,2.16919567 L82.3722192,2.37506565 L82.3722192,12.0675301 L63.0422051,12.0675301 C61.6241022,12.1238299 60.2345671,12.4718234 58.9597591,13.0878693 L58.5391904,13.3031134 L21.4716918,35.0768367 C20.2189096,35.7519322 18.8423509,36.1617373 17.4277671,36.2827942 L16.9549484,36.3124199 L0,36.3124199 L0,21.7737233 L16.9549484,21.7737233 C18.3759992,21.8362618 19.7682128,22.1844907 21.0490021,22.7958175 L21.4716918,23.0093066 L25.5903028,25.4118296 C26.7960555,26.0342785 28.2134683,26.0757751 29.4474424,25.5363194 L29.7089137,25.4118296 L34.9807357,22.3091427 C35.439228,22.0742501 35.7276314,21.602448 35.7276314,21.0872881 C35.7276314,20.6293682 35.4997571,20.2057063 35.1271046,19.95224 L23.8879436,13.3442995 C22.6374433,12.6746006 21.2658538,12.2655924 19.856134,12.1400381 L19.3849289,12.1087162 L0,12.1087162 L0,2.41625176 C0,1.14851571 0.976317968,0.108810942 2.21808155,0.0080098049 L2.41625176,0 L79.9559674,0 Z" fill="#77E8B9"></path>
        <path d="M148.874057,8.47060987 C147.404238,7.39059432 145.694007,6.68388736 143.890538,6.41130439 C141.66355,6.03636124 139.407999,5.85720345 137.149745,5.87588497 L124.793912,5.87588497 C122.49488,5.86296746 120.198784,6.04206292 117.92956,6.41130439 C115.903649,6.7364452 113.956952,7.43967774 112.190962,8.48433857 C110.449053,9.564885 108.982574,11.0360645 107.907607,12.7814227 C106.617056,14.9703594 105.768172,17.3910782 105.408983,19.9066196 L103.404592,31.4661877 C102.855247,33.8883907 102.808521,36.397525 103.267305,38.8385013 C103.636413,40.5693484 104.562238,42.1316779 105.903216,43.2866012 C107.379746,44.4453035 109.128582,45.2062835 110.982837,45.4969224 C113.047322,45.8728639 115.139202,46.0747281 117.23642,46.1006522 L129.79116,46.1009853 L127.67694,58.1822441 L115.801611,58.1822441 L117.009737,51.2355203 L98.5034454,53.6655008 L97.7620954,58.0861432 C97.2473303,60.493192 97.1914375,62.975765 97.597351,65.403542 C97.9213291,67.1258877 98.8102092,68.6910896 100.123432,69.8516418 C101.553407,71.007152 103.262979,71.7648573 105.079494,72.0482344 C107.125943,72.4051748 109.197221,72.5975633 111.273448,72.6237818 L126.19424,72.6248399 C128.609021,72.6443099 131.020836,72.4513647 133.401809,72.0482344 C135.445501,71.7031131 137.400575,70.9565451 139.154136,69.8516418 C140.898886,68.7122476 142.351895,67.1792988 143.396305,65.3760846 C144.675145,63.1054249 145.531055,60.621425 145.922386,58.0449571 L148.064064,45.6891242 C148.591706,43.3387311 148.591706,40.9005917 148.064064,38.5501986 C147.580618,36.8466896 146.535607,35.3565807 145.098664,34.321758 C143.535804,33.2343387 141.739498,32.5289829 139.854299,32.2624525 C137.511899,31.8878131 135.142388,31.7087222 132.770289,31.7270331 L121.11462,31.7270331 L123.077824,20.3596668 L133.745027,20.3596668 L132.729102,26.4689398 L150.905905,24.1762463 L151.647255,19.8517048 C152.190016,17.5122838 152.190016,15.0796576 151.647255,12.7402366 C151.25209,11.1697751 150.382734,9.76259162 149.161957,8.70770533 L148.874057,8.47060987 Z M327.800246,6.63096364 L319.219807,55.9032794 L330.367514,55.9032794 L338.934224,6.63096364 L357.907292,6.63096364 L348.983635,58.1273293 C348.600724,60.7000506 347.759078,63.1831404 346.49874,65.4584568 C345.454197,67.254159 344.000781,68.7781294 342.256571,69.9065567 C340.451996,71.01636 338.445705,71.7582208 336.353228,72.0894205 C334.198207,72.4517983 332.019027,72.6483322 329.834862,72.6775037 L328.898542,72.6797547 L314.771707,72.6797547 C312.37433,72.7055062 309.979767,72.5078743 307.619052,72.0894205 C305.751492,71.8041605 303.985754,71.0534857 302.484517,69.9065567 C301.125531,68.7645989 300.191902,67.1972622 299.834878,65.4584568 C299.423289,63.2338083 299.420359,60.9545425 299.82442,58.7319902 L299.944707,58.1273293 L308.895822,6.63096364 L327.800246,6.63096364 Z M206.562068,6.63096364 L203.665312,23.174051 L188.934413,23.174051 L180.450075,71.8834899 L161.531922,71.8834899 L170.01626,23.174051 L155.285362,23.174051 L158.168389,6.63096364 L206.562068,6.63096364 Z M230.88933,6.63096364 L219.521964,71.8834899 L200.590082,71.8834899 L211.971177,6.63096364 L230.88933,6.63096364 Z M254.241854,6.63096364 L264.359909,32.4958405 L282.728914,6.63096364 L300.013351,6.63096364 L288.645985,71.8834899 L269.672917,71.8834899 L275.644903,37.7676625 L259.513676,60.9828996 L250.974423,38.2344384 L245.112267,71.8834899 L228.747653,71.8834899 L240.115019,6.63096364 L254.241854,6.63096364 Z M385.694187,6.63096364 L377.209849,55.3404026 L397.52833,55.3404026 L394.645302,71.8834899 L355.39494,71.8834899 L366.762306,6.63096364 L385.694187,6.63096364 Z M430.120271,6.63096364 L421.539832,55.9032794 L432.67381,55.9032794 L441.254249,6.63096364 L460.241046,6.63096364 L451.289931,58.1273293 C450.902743,60.7009361 450.056431,63.1840715 448.791307,65.4584568 C447.754409,67.2598879 446.299433,68.7854939 444.549138,69.9065567 C442.750639,71.0186203 440.748362,71.7607231 438.659524,72.0894205 C436.500519,72.4522532 434.317316,72.6488446 432.129145,72.6776745 L417.078003,72.6797547 C414.680592,72.7064659 412.28594,72.5088266 409.925349,72.0894205 C408.057136,71.8064579 406.290848,71.0555492 404.790814,69.9065567 C403.427635,68.7681693 402.493062,67.1992491 402.141174,65.4584568 C401.729585,63.2338083 401.726655,60.9545425 402.130716,58.7319902 L402.251004,58.1273293 L411.188389,6.63096364 L430.120271,6.63096364 Z M497.102614,5.87588497 C499.360888,5.85663881 501.616488,6.03580052 503.843407,6.41130439 C505.656463,6.67959561 507.376596,7.38649969 508.854384,8.47060987 C510.21049,9.5449204 511.175366,11.0356542 511.600124,12.7127792 C512.092279,14.8818044 512.130137,17.1271698 511.713699,19.3079396 L511.600124,19.8517048 L510.845046,24.1762463 L492.668243,26.4689398 L493.697896,20.3596668 L483.016964,20.3596668 L481.05376,31.7270331 L492.709429,31.7270331 C495.081548,31.7081491 497.451107,31.8872436 499.79344,32.2624525 C501.679297,32.5264771 503.476167,33.2320543 505.037804,34.321758 C506.474747,35.3565807 507.519759,36.8466896 508.003204,38.5501986 C508.496651,40.7190789 508.534608,42.9647006 508.117076,45.1453873 L508.003204,45.6891242 L505.861527,58.0449571 C505.468037,60.6189534 504.61718,63.1017824 503.349174,65.3760846 C502.304764,67.1792988 500.851755,68.7122476 499.107005,69.8516418 C497.347362,70.9543399 495.388259,71.7006649 493.340949,72.0482344 C491.261551,72.4002719 489.158624,72.5919981 487.050738,72.6219247 L486.147109,72.6248399 L472.116374,72.6248399 C469.742347,72.6504102 467.371005,72.457394 465.032363,72.0482344 C463.211762,71.764664 461.497803,71.0071129 460.062573,69.8516418 C458.748583,68.6937837 457.863442,67.1266486 457.55022,65.403542 C457.165369,63.179013 457.180314,60.905348 457.592656,58.6890776 L457.714964,58.0861432 L458.456314,53.6655008 L476.962606,51.2355203 L475.740752,58.1822441 L487.684724,58.1822441 L489.771486,46.1009853 L478.129546,46.1009853 C475.726926,46.1293919 473.327127,45.92711 470.963163,45.4969224 C469.110104,45.2021787 467.362261,44.4416305 465.883543,43.2866012 C464.542564,42.1316779 463.616739,40.5693484 463.247632,38.8385013 C462.832283,36.5999931 462.840855,34.3052783 463.270911,32.0732725 L463.398648,31.4661877 L465.403038,19.9066196 C465.743909,17.392645 466.579111,14.9710264 467.860476,12.7814227 C468.936534,11.032293 470.408431,9.56039687 472.15756,8.48433857 C473.917674,7.43770397 475.860268,6.73427075 477.882429,6.41130439 C479.827504,6.09502925 481.792284,5.91826797 483.761736,5.8821931 L484.746781,5.87588497 L497.102614,5.87588497 Z" fill="#000000"></path>
    </g>
</svg>

<svg preserveAspectRatio="xMidYMid" viewBox="0 0 512 83" xmlns="http://www.w3.org/2000/svg">
  <path fill="#77E8B9" d="M82.372 46.074v14.538H65.417a10.393 10.393 0 0 1-4.094-1.02l-.422-.215-4.12-2.39a4.49 4.49 0 0 0-3.856-.124l-.262.125-5.272 3.089a1.373 1.373 0 0 0-.148 2.371l.148.086 11.093 6.508a10.324 10.324 0 0 0 4.032 1.206l.471.03h19.385v9.692a2.43 2.43 0 0 1-2.209 2.392l-.207.01H2.416a2.43 2.43 0 0 1-2.402-2.157L0 80.011v-9.693h19.33a10.324 10.324 0 0 0 4.082-1.02l.421-.215 37.068-21.774a10.585 10.585 0 0 1 4.044-1.204l.472-.031h16.955Zm0-24.273V36.34h-19.33c-1.417.062-2.805.41-4.082 1.022l-.42.213-37.068 21.788a10.585 10.585 0 0 1-4.045 1.204l-.472.031H0V46.06h19.33a10.516 10.516 0 0 0 4.082-1.022l.421-.214 37.068-21.787a10.585 10.585 0 0 1 4.044-1.204l.472-.032h16.955ZM79.956 0c1.25 0 2.28.948 2.404 2.17l.012.205v9.693h-19.33a10.324 10.324 0 0 0-4.082 1.02l-.42.215-37.068 21.774a10.393 10.393 0 0 1-4.044 1.206l-.473.03H0v-14.54h16.955c1.421.063 2.813.411 4.094 1.023l.423.213 4.118 2.403a4.49 4.49 0 0 0 3.857.124l.262-.124 5.272-3.103a1.373 1.373 0 0 0 .146-2.357l-11.24-6.608a10.516 10.516 0 0 0-4.03-1.204l-.472-.031H0V2.416C0 1.15.976.11 2.218.008L2.416 0h77.54Z"/>
  <path d="M148.874 8.47a11.258 11.258 0 0 0-4.983-2.059 38.674 38.674 0 0 0-6.741-.535h-12.356a41.296 41.296 0 0 0-6.864.535 16.365 16.365 0 0 0-5.739 2.073 13.207 13.207 0 0 0-4.283 4.297 19.44 19.44 0 0 0-2.499 7.126l-2.004 11.56a18.163 18.163 0 0 0-.138 7.372 8.1 8.1 0 0 0 2.636 4.448 10.983 10.983 0 0 0 5.08 2.21c2.064.376 4.156.578 6.253.604h12.555l-2.114 12.081h-11.875l1.208-6.946-18.507 2.43-.74 4.42a19.563 19.563 0 0 0-.166 7.318 7.88 7.88 0 0 0 2.526 4.448 10.448 10.448 0 0 0 4.956 2.196c2.047.357 4.118.55 6.194.576h14.921a41.15 41.15 0 0 0 7.208-.576 15.692 15.692 0 0 0 5.752-2.196 13.317 13.317 0 0 0 4.242-4.476 21.527 21.527 0 0 0 2.526-7.331l2.142-12.356c.528-2.35.528-4.788 0-7.139a7.853 7.853 0 0 0-2.965-4.228 12.164 12.164 0 0 0-5.245-2.06 42.765 42.765 0 0 0-7.084-.535h-11.655l1.963-11.367h10.667l-1.016 6.109 18.177-2.293.741-4.324c.543-2.34.543-4.772 0-7.112a7.867 7.867 0 0 0-2.485-4.032l-.288-.237ZM327.8 6.632l-8.58 49.272h11.148l8.566-49.272h18.973l-8.923 51.496a21.733 21.733 0 0 1-2.485 7.331 13.207 13.207 0 0 1-4.242 4.449 16.063 16.063 0 0 1-5.904 2.182 42.751 42.751 0 0 1-6.518.589l-.936.002h-14.127a38.605 38.605 0 0 1-7.153-.59 11.258 11.258 0 0 1-5.134-2.183 7.88 7.88 0 0 1-2.65-4.449 18.644 18.644 0 0 1-.01-6.726l.12-.605 8.95-51.496H327.8Zm-121.238 0-2.897 16.543h-14.73l-8.485 48.71h-18.918l8.484-48.71h-14.73l2.882-16.543h48.394Zm24.327 0-11.367 65.252H200.59l11.381-65.252h18.918Zm23.353 0 10.118 25.865L282.729 6.63h17.284l-11.367 65.252h-18.973l5.972-34.115-16.131 23.215-8.54-22.749-5.862 33.65h-16.364L240.115 6.63h14.127Zm131.452 0-8.484 48.71h20.318l-2.883 16.542h-39.25l11.367-65.252h18.932Zm44.426 0-8.58 49.272h11.134l8.58-49.272h18.987l-8.951 51.496a21.733 21.733 0 0 1-2.499 7.331 12.96 12.96 0 0 1-4.242 4.449 15.898 15.898 0 0 1-5.89 2.182c-2.158.363-4.342.56-6.53.589l-15.051.002a38.44 38.44 0 0 1-7.153-.59 11.203 11.203 0 0 1-5.134-2.183 7.812 7.812 0 0 1-2.65-4.449 18.644 18.644 0 0 1-.01-6.726l.12-.605 8.937-51.496h18.932Zm66.983-.755c2.258-.02 4.513.16 6.74.535 1.813.269 3.534.975 5.011 2.06a7.88 7.88 0 0 1 2.746 4.242 16.14 16.14 0 0 1 .114 6.595l-.114.544-.755 4.324-18.177 2.293 1.03-6.11h-10.681l-1.963 11.368h11.655c2.373-.019 4.742.16 7.084.535 1.886.264 3.683.97 5.245 2.06a7.853 7.853 0 0 1 2.965 4.228 16.09 16.09 0 0 1 .114 6.595l-.114.544-2.141 12.356a21.829 21.829 0 0 1-2.513 7.331 13.317 13.317 0 0 1-4.242 4.476 15.857 15.857 0 0 1-5.766 2.196c-2.08.352-4.182.544-6.29.574l-.904.003h-14.03a38.687 38.687 0 0 1-7.085-.577 10.502 10.502 0 0 1-4.97-2.196 7.784 7.784 0 0 1-2.512-4.448 19 19 0 0 1 .043-6.715l.122-.603.741-4.42 18.507-2.43-1.222 6.946h11.944l2.086-12.081H478.13a37.548 37.548 0 0 1-7.167-.604 11.08 11.08 0 0 1-5.08-2.21 8.1 8.1 0 0 1-2.635-4.448 18.204 18.204 0 0 1 .023-6.766l.128-.607 2.004-11.56a19.22 19.22 0 0 1 2.457-7.125 13.11 13.11 0 0 1 4.298-4.297 16.2 16.2 0 0 1 5.724-2.073 41.35 41.35 0 0 1 5.88-.529l.985-.006h12.356Z"/>
</svg>
